src/epub/images/titlepage.svg

<?xml version="1.0" encoding="utf-8"?>
<svg xmlns="http://www.w3.org/2000/svg" xmlns:svg="http://www.w3.org/2000/svg" version="1.1" viewBox="0 0 1400 340">
	<title>The titlepage for the Standard Ebooks edition of The Woodlanders, by Thomas Hardy</title>
	<g>
		<path d="m 169.67762,68.245613 18.33918,0 0,61.754387 17.59065,0 0,-61.754387 18.33918,0 0,-15.438597 -54.26901,0 0,15.438597 z"/>
		<path d="m 252.87207,99.029239 24.88889,0 0,30.970761 17.59064,0 0,-77.192984 -17.59064,0 0,30.783626 -24.88889,0 0,-30.783626 -17.59065,0 0,77.192984 17.59065,0 0,-30.970761 z"/>
		<path d="m 355.7171,52.807016 -44.16374,0 0,77.192984 44.16374,0 0,-15.4386 -26.5731,0 0,-15.532161 25.4503,0 0,-15.438597 -25.4503,0 0,-15.345029 26.5731,0 0,-15.438597 z"/>
		<path d="m 452.60161,130 19.46198,0 21.98831,-77.192984 -19.46199,0 -13.19298,52.959064 -0.46784,0 -14.03509,-52.959064 -13.28655,0 -14.03509,52.959064 -0.46783,0 -13.19298,-52.959064 -19.55556,0 L 408.34429,130 427.89985,130 440.25073,86.678362 452.60161,130 Z"/>
		<path d="m 496.88524,91.356724 c 0,22.549706 16.09357,40.046786 38.92398,40.046786 22.17544,0 38.83041,-17.49708 38.83041,-40.046786 0,-22.549708 -17.40351,-39.953217 -38.83041,-39.953217 -21.23977,0 -38.92398,17.403509 -38.92398,39.953217 z m 18.99415,0 c 0,-11.508772 6.36257,-23.017544 19.92983,-23.017544 13.66082,0 19.83625,11.508772 19.83625,23.017544 0,11.508776 -5.80117,23.017546 -19.83625,23.017546 -14.40936,0 -19.92983,-11.50877 -19.92983,-23.017546 z"/>
		<path d="m 583.93932,91.356724 c 0,22.549706 16.09356,40.046786 38.92397,40.046786 22.17544,0 38.83041,-17.49708 38.83041,-40.046786 0,-22.549708 -17.40351,-39.953217 -38.83041,-39.953217 -21.23976,0 -38.92397,17.403509 -38.92397,39.953217 z m 18.99415,0 c 0,-11.508772 6.36257,-23.017544 19.92982,-23.017544 13.66082,0 19.83626,11.508772 19.83626,23.017544 0,11.508776 -5.80117,23.017546 -19.83626,23.017546 -14.40935,0 -19.92982,-11.50877 -19.92982,-23.017546 z"/>
		<path d="m 674.45541,52.807016 0,77.192984 22.36258,0 c 21.23976,0 38.92397,-16.09357 38.92397,-38.643276 0,-22.45614 -17.77777,-38.549708 -38.92397,-38.549708 l -22.36258,0 z m 17.59065,61.473684 0,-45.754385 2.71345,0 c 13.09941,0 21.9883,10.011696 21.9883,22.923977 -0.0936,12.912278 -8.98246,22.830408 -21.9883,22.830408 l -2.71345,0 z"/>
		<path d="m 766.12497,52.807016 -17.59064,0 0,77.192984 44.16374,0 0,-15.4386 -26.5731,0 0,-61.754384 z"/>
		<path d="m 847.01538,52.807016 -16.2807,0 L 799.57678,130 l 18.90058,0 5.70761,-15.4386 29.38011,0 5.70761,15.4386 18.90058,0 -31.15789,-77.192984 z m 0.5614,46.31579 -17.40351,0 8.60819,-22.45614 0.18713,0 8.60819,22.45614 z"/>
		<path d="m 903.68351,82.093566 0.18713,0 L 934.5607,130 l 17.59064,0 0,-77.192984 -17.59064,0 0,47.906434 -0.18713,0 -30.69006,-47.906434 -17.59065,0 0,77.192984 17.59065,0 0,-47.906434 z"/>
		<path d="m 968.39548,52.807016 0,77.192984 22.36257,0 c 21.23975,0 38.92395,-16.09357 38.92395,-38.643276 0,-22.45614 -17.7778,-38.549708 -38.92395,-38.549708 l -22.36257,0 z m 17.59064,61.473684 0,-45.754385 2.71345,0 c 13.09943,0 21.98833,10.011696 21.98833,22.923977 -0.094,12.912278 -8.9825,22.830408 -21.98833,22.830408 l -2.71345,0 z"/>
		<path d="m 1086.6381,52.807016 -44.1637,0 0,77.192984 44.1637,0 0,-15.4386 -26.5731,0 0,-15.532161 25.4503,0 0,-15.438597 -25.4503,0 0,-15.345029 26.5731,0 0,-15.438597 z"/>
		<path d="m 1101.7508,52.807016 0,77.192984 17.5906,0 0,-30.502925 23.579,30.502925 22.3625,0 -26.5731,-31.906433 c 9.4503,-2.994152 15.8129,-10.760234 15.8129,-22.362574 0,-15.157895 -10.8538,-22.923977 -25.1696,-22.923977 l -27.6023,0 z m 17.5906,34.245615 0,-20.210527 2.0585,0 c 6.6433,0 14.5965,0.467836 14.5965,10.105263 0,9.637428 -7.9532,10.105264 -14.5965,10.105264 l -2.0585,0 z"/>
		<path d="m 1202.2639,51.403507 c -12.4444,0 -25.1696,9.169591 -25.1696,23.578948 0,8.046784 5.4269,15.251462 14.6901,19.836258 9.1696,4.584795 17.4035,7.111107 17.4035,12.725147 0,7.20468 -7.2982,7.57895 -11.1345,7.57895 -8.6082,0 -18.9006,-8.70176 -18.9006,-8.70176 l -8.7953,14.78363 c 0,0 10.9474,10.19883 29.0058,10.19883 15.0644,0 29.0995,-6.45614 29.0995,-24.88889 0,-10.105264 -9.4503,-17.40351 -18.0585,-21.052632 -8.7953,-3.742691 -16.0936,-6.83041 -16.0936,-11.134504 0,-4.210526 3.1813,-6.923976 9.1696,-6.923976 7.9532,0 15.6257,5.333333 15.6257,5.333333 l 7.1111,-14.035088 c 0,0 -9.9181,-7.298246 -23.9532,-7.298246 z"/>
	</g>
	<g>
		<path d="m 373.58224,243.68421 13.75439,0 0,46.31579 13.19298,0 0,-46.31579 13.75438,0 0,-11.57895 -40.70175,0 0,11.57895 z"/>
		<path d="m 437.22807,266.77193 18.66667,0 0,23.22807 13.19298,0 0,-57.89474 -13.19298,0 0,23.08772 -18.66667,0 0,-23.08772 -13.19298,0 0,57.89474 13.19298,0 0,-23.22807 z"/>
		<path d="m 479.89255,261.01754 c 0,16.91228 12.07017,30.03509 29.19298,30.03509 16.63158,0 29.12281,-13.12281 29.12281,-30.03509 0,-16.91228 -13.05264,-29.96491 -29.12281,-29.96491 -15.92983,0 -29.19298,13.05263 -29.19298,29.96491 z m 14.24561,0 c 0,-8.63157 4.77193,-17.26315 14.94737,-17.26315 10.24561,0 14.87719,8.63158 14.87719,17.26315 0,8.63158 -4.35088,17.26316 -14.87719,17.26316 -10.80702,0 -14.94737,-8.63158 -14.94737,-17.26316 z"/>
		<path d="m 596.88926,290 13.19298,0 -5.19298,-57.89474 -14.03509,0 -12.8421,33.40351 -12.84211,-33.40351 -14.03509,0 -5.19298,57.89474 13.19298,0 2.73685,-34.31579 0.35087,0 11.85965,33.96491 7.85965,0 11.85965,-33.96491 0.35088,0 L 596.88926,290 Z"/>
		<path d="m 649.77083,232.10526 -12.21053,0 L 614.19188,290 l 14.17544,0 4.2807,-11.57895 22.03509,0 4.2807,11.57895 14.17544,0 -23.36842,-57.89474 z m 0.42105,34.73685 -13.05263,0 6.45614,-16.84211 0.14035,0 6.45614,16.84211 z"/>
		<path d="m 700.29165,231.05263 c -9.33333,0 -18.87719,6.8772 -18.87719,17.68421 0,6.03509 4.07018,11.4386 11.01755,14.8772 6.87719,3.43859 13.05263,5.33333 13.05263,9.54385 0,5.40351 -5.47369,5.68422 -8.35088,5.68422 -6.45614,0 -14.17544,-6.52632 -14.17544,-6.52632 l -6.59649,11.08772 c 0,0 8.21053,7.64912 21.75439,7.64912 11.29824,0 21.82456,-4.8421 21.82456,-18.66666 0,-7.57895 -7.08772,-13.05264 -13.54386,-15.78948 -6.59649,-2.80702 -12.07018,-5.12281 -12.07018,-8.35088 0,-3.15789 2.38597,-5.19298 6.8772,-5.19298 5.96491,0 11.71929,4 11.71929,4 l 5.33334,-10.52631 c 0,0 -7.4386,-5.47369 -17.96492,-5.47369 z"/>
		<path d="m 768.48904,266.77193 18.66667,0 0,23.22807 13.19298,0 0,-57.89474 -13.19298,0 0,23.08772 -18.66667,0 0,-23.08772 -13.19298,0 0,57.89474 13.19298,0 0,-23.22807 z"/>
		<path d="m 843.15349,232.10526 -12.21053,0 L 807.57454,290 l 14.17544,0 4.2807,-11.57895 22.03509,0 4.2807,11.57895 14.17544,0 -23.36842,-57.89474 z m 0.42105,34.73685 -13.05263,0 6.45614,-16.84211 0.14035,0 6.45614,16.84211 z"/>
		<path d="m 873.71162,232.10526 0,57.89474 13.19298,0 0,-22.87719 17.68421,22.87719 16.77193,0 -19.92982,-23.92982 c 7.08771,-2.24562 11.85964,-8.07018 11.85964,-16.77193 0,-11.36842 -8.14035,-17.19299 -18.87719,-17.19299 l -20.70175,0 z m 13.19298,25.68421 0,-15.15789 1.54386,0 c 4.98246,0 10.94737,0.35088 10.94737,7.57895 0,7.22807 -5.96491,7.57894 -10.94737,7.57894 l -1.54386,0 z"/>
		<path d="m 929.01316,232.10526 0,57.89474 16.77193,0 c 15.92983,0 29.19298,-12.07018 29.19298,-28.98246 0,-16.8421 -13.33333,-28.91228 -29.19298,-28.91228 l -16.77193,0 z m 13.19298,46.10527 0,-34.31579 2.03509,0 c 9.82456,0 16.49123,7.50877 16.49123,17.19298 -0.0702,9.68421 -6.73684,17.12281 -16.49123,17.12281 l -2.03509,0 z"/>
		<path d="m 973.20177,232.10526 21.33333,31.92983 0,25.96491 13.193,0 0,-25.96491 21.3333,-31.92983 -15.8596,0 -12.0702,18.52632 -12.07018,-18.52632 -15.85965,0 z"/>
	</g>
</svg>

<?xml version="1.0" encoding="utf-8"?>
<svg xmlns="http://www.w3.org/2000/svg" xmlns:svg="http://www.w3.org/2000/svg" version="1.1" viewBox="0 0 1400 340">
	<title>The titlepage for the Standard Ebooks edition of The Woodlanders, by Thomas Hardy</title>
	<g aria-label="THE WOODLANDERS">
		<path d="M 169.67762,68.245613 H 188.0168 V 130 h 17.59065 V 68.245613 h 18.33918 V 52.807016 h -54.26901 z"/>
		<path d="m 252.87207,99.029239 h 24.88889 V 130 H 295.3516 V 52.807016 H 277.76096 V 83.590642 H 252.87207 V 52.807016 H 235.28142 V 130 h 17.59065 z"/>
		<path d="M 355.7171,52.807016 H 311.55336 V 130 H 355.7171 V 114.5614 H 329.144 V 99.029239 h 25.4503 V 83.590642 H 329.144 V 68.245613 h 26.5731 z"/>
		<path d="m 452.60161,130 h 19.46198 L 494.0519,52.807016 h -19.46199 l -13.19298,52.959064 h -0.46784 L 446.894,52.807016 h -13.28655 l -14.03509,52.959064 h -0.46783 L 405.91155,52.807016 H 386.35599 L 408.34429,130 h 19.55556 l 12.35088,-43.321638 z"/>
		<path d="m 496.88524,91.356724 c 0,22.549706 16.09357,40.046786 38.92398,40.046786 22.17544,0 38.83041,-17.49708 38.83041,-40.046786 0,-22.549708 -17.40351,-39.953217 -38.83041,-39.953217 -21.23977,0 -38.92398,17.403509 -38.92398,39.953217 z m 18.99415,0 c 0,-11.508772 6.36257,-23.017544 19.92983,-23.017544 13.66082,0 19.83625,11.508772 19.83625,23.017544 0,11.508776 -5.80117,23.017546 -19.83625,23.017546 -14.40936,0 -19.92983,-11.50877 -19.92983,-23.017546 z"/>
		<path d="m 583.93932,91.356724 c 0,22.549706 16.09356,40.046786 38.92397,40.046786 22.17544,0 38.83041,-17.49708 38.83041,-40.046786 0,-22.549708 -17.40351,-39.953217 -38.83041,-39.953217 -21.23976,0 -38.92397,17.403509 -38.92397,39.953217 z m 18.99415,0 c 0,-11.508772 6.36257,-23.017544 19.92982,-23.017544 13.66082,0 19.83626,11.508772 19.83626,23.017544 0,11.508776 -5.80117,23.017546 -19.83626,23.017546 -14.40935,0 -19.92982,-11.50877 -19.92982,-23.017546 z"/>
		<path d="M 674.45541,52.807016 V 130 h 22.36258 c 21.23976,0 38.92397,-16.09357 38.92397,-38.643276 0,-22.45614 -17.77777,-38.549708 -38.92397,-38.549708 z M 692.04606,114.2807 V 68.526315 h 2.71345 c 13.09941,0 21.9883,10.011696 21.9883,22.923977 -0.0936,12.912278 -8.98246,22.830408 -21.9883,22.830408 z"/>
		<path d="M 766.12497,52.807016 H 748.53433 V 130 h 44.16374 v -15.4386 h -26.5731 z"/>
		<path d="m 847.01538,52.807016 h -16.2807 L 799.57678,130 h 18.90058 l 5.70761,-15.4386 h 29.38011 L 859.27269,130 h 18.90058 z m 0.5614,46.31579 h -17.40351 l 8.60819,-22.45614 h 0.18713 z"/>
		<path d="m 903.68351,82.093566 h 0.18713 L 934.5607,130 h 17.59064 V 52.807016 H 934.5607 v 47.906434 h -0.18713 L 903.68351,52.807016 H 886.09286 V 130 h 17.59065 z"/>
		<path d="M 968.39548,52.807016 V 130 h 22.36257 c 21.23975,0 38.92395,-16.09357 38.92395,-38.643276 0,-22.45614 -17.7778,-38.549708 -38.92395,-38.549708 z M 985.98612,114.2807 V 68.526315 h 2.71345 c 13.09943,0 21.98833,10.011696 21.98833,22.923977 -0.094,12.912278 -8.9825,22.830408 -21.98833,22.830408 z"/>
		<path d="m 1086.6381,52.807016 h -44.1637 V 130 h 44.1637 V 114.5614 H 1060.065 V 99.029239 h 25.4503 V 83.590642 H 1060.065 V 68.245613 h 26.5731 z"/>
		<path d="M 1101.7508,52.807016 V 130 h 17.5906 V 99.497075 L 1142.9204,130 h 22.3625 l -26.5731,-31.906433 c 9.4503,-2.994152 15.8129,-10.760234 15.8129,-22.362574 0,-15.157895 -10.8538,-22.923977 -25.1696,-22.923977 z m 17.5906,34.245615 V 66.842104 h 2.0585 c 6.6433,0 14.5965,0.467836 14.5965,10.105263 0,9.637428 -7.9532,10.105264 -14.5965,10.105264 z"/>
		<path d="m 1202.2639,51.403507 c -12.4444,0 -25.1696,9.169591 -25.1696,23.578948 0,8.046784 5.4269,15.251462 14.6901,19.836258 9.1696,4.584795 17.4035,7.111107 17.4035,12.725147 0,7.20468 -7.2982,7.57895 -11.1345,7.57895 -8.6082,0 -18.9006,-8.70176 -18.9006,-8.70176 l -8.7953,14.78363 c 0,0 10.9474,10.19883 29.0058,10.19883 15.0644,0 29.0995,-6.45614 29.0995,-24.88889 0,-10.105264 -9.4503,-17.40351 -18.0585,-21.052632 -8.7953,-3.742691 -16.0936,-6.83041 -16.0936,-11.134504 0,-4.210526 3.1813,-6.923976 9.1696,-6.923976 7.9532,0 15.6257,5.333333 15.6257,5.333333 l 7.1111,-14.035088 c 0,0 -9.9181,-7.298246 -23.9532,-7.298246 z"/>
	</g>
	<g aria-label="THOMAS HARDY">
		<path d="m 373.58224,243.68421 h 13.75439 V 290 h 13.19298 v -46.31579 h 13.75438 v -11.57895 h -40.70175 z"/>
		<path d="m 437.22807,266.77193 h 18.66667 V 290 h 13.19298 v -57.89474 h -13.19298 v 23.08772 H 437.22807 V 232.10526 H 424.03509 V 290 h 13.19298 z"/>
		<path d="m 479.89255,261.01754 c 0,16.91228 12.07017,30.03509 29.19298,30.03509 16.63158,0 29.12281,-13.12281 29.12281,-30.03509 0,-16.91228 -13.05264,-29.96491 -29.12281,-29.96491 -15.92983,0 -29.19298,13.05263 -29.19298,29.96491 z m 14.24561,0 c 0,-8.63157 4.77193,-17.26315 14.94737,-17.26315 10.24561,0 14.87719,8.63158 14.87719,17.26315 0,8.63158 -4.35088,17.26316 -14.87719,17.26316 -10.80702,0 -14.94737,-8.63158 -14.94737,-17.26316 z"/>
		<path d="m 596.88926,290 h 13.19298 l -5.19298,-57.89474 h -14.03509 l -12.8421,33.40351 -12.84211,-33.40351 H 551.13487 L 545.94189,290 h 13.19298 l 2.73685,-34.31579 h 0.35087 l 11.85965,33.96491 h 7.85965 l 11.85965,-33.96491 h 0.35088 z"/>
		<path d="M 649.77083,232.10526 H 637.5603 L 614.19188,290 h 14.17544 l 4.2807,-11.57895 h 22.03509 L 658.96381,290 h 14.17544 z m 0.42105,34.73685 H 637.13925 L 643.59539,250 h 0.14035 z"/>
		<path d="m 700.29165,231.05263 c -9.33333,0 -18.87719,6.8772 -18.87719,17.68421 0,6.03509 4.07018,11.4386 11.01755,14.8772 6.87719,3.43859 13.05263,5.33333 13.05263,9.54385 0,5.40351 -5.47369,5.68422 -8.35088,5.68422 -6.45614,0 -14.17544,-6.52632 -14.17544,-6.52632 l -6.59649,11.08772 c 0,0 8.21053,7.64912 21.75439,7.64912 11.29824,0 21.82456,-4.8421 21.82456,-18.66666 0,-7.57895 -7.08772,-13.05264 -13.54386,-15.78948 -6.59649,-2.80702 -12.07018,-5.12281 -12.07018,-8.35088 0,-3.15789 2.38597,-5.19298 6.8772,-5.19298 5.96491,0 11.71929,4 11.71929,4 l 5.33334,-10.52631 c 0,0 -7.4386,-5.47369 -17.96492,-5.47369 z"/>
		<path d="m 768.48904,266.77193 h 18.66667 V 290 h 13.19298 v -57.89474 h -13.19298 v 23.08772 H 768.48904 V 232.10526 H 755.29606 V 290 h 13.19298 z"/>
		<path d="M 843.15349,232.10526 H 830.94296 L 807.57454,290 h 14.17544 l 4.2807,-11.57895 h 22.03509 L 852.34647,290 h 14.17544 z m 0.42105,34.73685 H 830.52191 L 836.97805,250 h 0.14035 z"/>
		<path d="M 873.71162,232.10526 V 290 H 886.9046 V 267.12281 L 904.58881,290 h 16.77193 l -19.92982,-23.92982 c 7.08771,-2.24562 11.85964,-8.07018 11.85964,-16.77193 0,-11.36842 -8.14035,-17.19299 -18.87719,-17.19299 z m 13.19298,25.68421 v -15.15789 h 1.54386 c 4.98246,0 10.94737,0.35088 10.94737,7.57895 0,7.22807 -5.96491,7.57894 -10.94737,7.57894 z"/>
		<path d="M 929.01316,232.10526 V 290 h 16.77193 c 15.92983,0 29.19298,-12.07018 29.19298,-28.98246 0,-16.8421 -13.33333,-28.91228 -29.19298,-28.91228 z m 13.19298,46.10527 v -34.31579 h 2.03509 c 9.82456,0 16.49123,7.50877 16.49123,17.19298 -0.0702,9.68421 -6.73684,17.12281 -16.49123,17.12281 z"/>
		<path d="m 973.20177,232.10526 21.33333,31.92983 V 290 h 13.193 v -25.96491 l 21.3333,-31.92983 h -15.8596 l -12.0702,18.52632 -12.07018,-18.52632 z"/>
	</g>
</svg>
